X: 2
T: Lougheil March, The
Z: ceolachan
S: https://thesession.org/tunes/6884#setting18455
R: barndance
M: 4/4
L: 1/8
K: Emin
e2 A2 e2 A2 | e>^de/f/g g>e=dB | G2 G2 Bc/B/ AG | B2 d2- d2 g>f |e2 A2 eA A/A/A | e>^def g2 d/c/B | A3 A B2 B/A/G | g2 e2- e2 :|d>cde g2 ge | a>baf gfed | g2 e2 fede | g2 e2- e2 e/f/g |a2 fa g2 eg | f2 d/e/f edcB | A3 A Bc/B/ AG | g2 e2 e2 :|
